X: 24
T: Smiths Gardens
%R: march, reel
B: "Twenty Four Country Dances for the Year 1781", Thomas Skillern, ed. p.12 #2
F: http://www.vwml.org/browse/browse-collections-dance-tune-books/browse-skillerns1781#
Z: 2014 John Chambers <jc:trillian.mit.edu>
M: 2/4
L: 1/16
K: F
|:\
f2c2 c2BA | GABc A2GF |\
BdG2 AcF2 | EGBA A2G2 :|\
|:\
CDEF GABc | FGAB cdef |\
dfB2 cfA2 | BdcE F4 :|
%%begintext align
%%   First & 2d Cu. Right Hands across .|
%% Left back again :| 1st & 2d Cu. Chassee :|.
%% lead your partner off one Couple
%% into the 2d Cu.s place :|:
%%endtext
